X:1
T:Robin Hood’s Dance

M:6/8

L:1/8

K:Amin

A>Bc B>cd | c>BA G2G | c2c d2d | e6 | e>fe d>cB | c>BA G>AB | c2A ^G^FG | A6 ||

                       

ROBIN REDBREAST (An Bruindeargan). Irish, Reel. A Major. Standard tuning. AB (O'Neill {1850}): AA'BB' (O'Neill {Krassen}). Source Cronin was a weaver and machinist as well as a composer. O’Neill held his playing in high esteem and noted that it was Cronin’s boast that he never forgot nor forgave a slight. See also the related “Eel in the Sink.” Source for notated version: elderly Chicago fiddler Edward Cronin, originally from County Tipperary [O’Neill]. O'Neill (Krassen), 1976; pg. 131. O'Neill (Music of Ireland: 1850 Melodies), 1903/1979; No. 1395, pg. 259.

